themes/ColwichTheme/static/images/icons/heart.svg

<svg viewBox="0 0 512 512" xmlns="http://www.w3.org/2000/svg"><path d="m256 480c-10.3 0-20.2-3.9-27.7-10.9l-180.71-168.7c-30.36-28.3-47.59-68-47.59-109.5v-5.8c0-69.9 50.52-129.52 119.4-141.01 44.7-7.58 92 7.29 124.6 39.93l12 11.98z"/><path d="m256 480v-384l11.1-11.98c33.5-32.65 79.9-47.51 125.5-39.92 68.9 11.48 119.4 71.1 119.4 141v5.8c0 41.5-17.2 81.2-47.6 109.5l-180.7 168.7c-7.5 7-17.4 10.9-27.7 10.9z" opacity=".4"/></svg>

<svg xmlns="http://www.w3.org/2000/svg" viewBox="0 0 512 512"><!--! Font Awesome Pro 6.1.1 by @fontawesome - https://fontawesome.com License - https://fontawesome.com/license (Commercial License) Copyright 2022 Fonticons, Inc. --><defs><style>.fa-secondary{opacity:.4}</style></defs><path class="fa-primary" d="M256 480C245.7 480 235.8 476.1 228.3 469.1L47.59 300.4C17.23 272.1 0 232.4 0 190.9V185.1C0 115.2 50.52 55.58 119.4 44.09C164.1 36.51 211.4 51.38 244 84.02L256 96V480z"/><path class="fa-secondary" d="M256 480V96L267.1 84.02C300.6 51.37 347 36.51 392.6 44.1C461.5 55.58 512 115.2 512 185.1V190.9C512 232.4 494.8 272.1 464.4 300.4L283.7 469.1C276.2 476.1 266.3 480 256 480L256 480z"/></svg>
